usr/share/icons/biglinux-icons-material-dark/symbolic/actions/combined_fragment.svg

<svg xmlns="http://www.w3.org/2000/svg" viewBox="0 0 16 16">
<defs id="defs3051">
<style id="current-color-scheme" type="text/css">
.ColorScheme-Contrast{color:#dedede}
</style>
</defs>
<path d="M2 4v8h12V4zm1 1h3v2H3zm4 0h6v6H3V8h4z" class="ColorScheme-Contrast" style="fill:currentColor;fill-opacity:1;stroke:none"/>
</svg>

<svg xmlns="http://www.w3.org/2000/svg" viewBox="0 0 16 16">
  <defs id="defs3051">
    <style type="text/css" id="current-color-scheme">
      .ColorScheme-Text {
        color:#dedede;
      }
      </style>
  </defs>
 <path style="fill:currentColor;fill-opacity:1;stroke:none" 
     d="M 2 4 L 2 12 L 14 12 L 14 4 L 2 4 z M 3 5 L 6 5 L 6 7 L 3 7 L 3 5 z M 7 5 L 13 5 L 13 11 L 3 11 L 3 8 L 7 8 L 7 7 L 7 5 z "
     class="ColorScheme-Text"
     />
</svg>
